X:1
T:Coil-a-Creich Inn, Deeside
T:Coil-a-Creich Inn, Deeside
T:Alexander Walker
C:Alexander Walker
L:1/8
M:2/2
K:Cmin
V:1 treble 
V:1
 G | c2 (ce) dB FD | c2 (cd) cgec | dbfd Bcdc | BGFD (C2 C) :| e | g2 ec Gcce | dBFB CBBd | %8
 g2 ec Gcce | dBfd (c2 c)g | ec Gc EcGc | DBFB DBFD | CEDF EGcd | eg G=B (c2 c) || %14

